X: 20992
U: Q=!diminuendo(!
U: q=!diminuendo)!
M: 6/8
L: 1/8
K: Bb
V: 1 name="5"
d2B e2c | AGA B2d | f2d g2e | d3 c2c |\
d2B e2c | AGA B2g/f/ | =edc cde | (f3 F2) H|]
f |\
efe d2d | cdB AGF | GAG e2c | (B3 A2)f |\
g3 fbd | ede d2d | fec AGA | Qc3 q"^D.C."B2 |]
ecc dBB | AGA B2d/e/ | fed efg | B3 A2F |\


